;PYCAM-META-DATA: Filename: /home/jas/pycam-0.5.1/samples/sled.stl
;PYCAM-META-DATA: Timestamp: 2012-12-17 16:32:14.971387
;PYCAM-META-DATA: Version: 0.5.1
;Estimated machine time: 62 minutes
G40 (disable tool radius compensation)
G49 (disable tool length compensation)
G80 (cancel modal motion)
G54 (select coordinate system 1)
G90 (disable incremental moves)
G21 (metric)
G61 (exact path mode)
F200.00000
S1000.00000
;PYCAM_TOOLPATH_SETTINGS: START
;[Bounds]
;maxz = 17.8571456549
;maxx = 108.5
;maxy = 26.0000035124
;minx = -8.5
;miny = -1.00000031931
;minz = 0.0
;
;[Tool]
;torus_radius = 0.25
;speed = 1000.0
;shape = CylindricalCutter
;tool_radius = 1.5
;feedrate = 200.0
;
;[Process]
;engrave_offset = 0.0
;step_down = 3.0
;generator = PushCutter
;postprocessor = SimpleCutter
;overlap_percent = 0
;milling_style = ignore
;material_allowance = 0.5
;pocketing_type = none
;path_direction = x
;
;PYCAM_TOOLPATH_SETTINGS: END
T1 M6
G0 Z25.0000
M3 (start spindle)
G04 P3 (wait for 3 seconds)
 X-8.5000 Y-1.0000
G1 Z17.8571
 X71.2679
G0 Z25.0000
 X101.7320
G1 Z17.8571
 X108.5000
 Y1.7000
 X101.9999
G0 Z25.0000
 X71.9464
G1 Z17.8571
 X-8.5000
 Y4.4000
 X98.0000
G0 Z25.0000
 X102.0000
G1 Z17.8571
 X108.5000
 Y7.1000
 X102.0000
G0 Z25.0000
 X98.0000
G1 Z17.8571
 X-8.5000
 Y9.8000
 X98.0000
G0 Z25.0000
 X102.0000
G1 Z17.8571
 X108.5000
 Y12.5000
 X102.0000
G0 Z25.0000
 X98.0000
G1 Z17.8571
 X-8.5000
 Y15.2000
 X98.0000
G0 Z25.0000
 X102.0000
G1 Z17.8571
 X108.5000
 Y17.9000
 X102.0000
G0 Z25.0000
 X97.0755
G1 Z17.8571
 X-8.5000
 Y20.6000
 X91.2435
G0 Z25.0000
 X102.0000
G1 Z17.8571
 X108.5000
 Y23.3000
 X102.0000
G0 Z25.0000
 X71.9464
G1 Z17.8571
 X-8.5000
 Y26.0000
 X71.2680
G0 Z25.0000
 X101.7320
G1 Z17.8571
 X108.5000
 Z14.8810
 X101.7320
G0 Z25.0000
 X68.7508
G1 Z14.8810
 X-8.5000
 Y23.3000
 X69.4292
G0 Z25.0000
 X102.0000
G1 Z14.8810
 X108.5000
 Y20.6000
 X102.0000
G0 Z25.0000
 X71.5680
G1 Z14.8810
 X-8.5000
 Y17.9000
 X88.5989
G0 Z25.0000
 X102.0000
G1 Z14.8810
 X108.5000
 Y15.2000
 X102.0000
G0 Z25.0000
 X91.5117
G1 Z14.8810
 X-8.5000
 Y12.5000
 X91.5117
G0 Z25.0000
 X102.0000
G1 Z14.8810
 X108.5000
 Y9.8000
 X102.0000
G0 Z25.0000
 X91.5117
G1 Z14.8810
 X-8.5000
 Y7.1000
 X91.5117
G0 Z25.0000
 X102.0000
G1 Z14.8810
 X108.5000
 Y4.4000
 X102.0000
G0 Z25.0000
 X70.9826
G1 Z14.8810
 X-8.5000
 Y1.7000
 X68.5105
G0 Z25.0000
 X102.0000
G1 Z14.8810
 X108.5000
 Y-1.0000
 X101.7320
G0 Z25.0000
 X68.7507
G1 Z14.8810
 X-8.5000
 Z11.9048
 X66.2335
G0 Z25.0000
 X101.7320
G1 Z11.9048
 X108.5000
 Y1.7000
 X102.0000
G0 Z25.0000
 X66.2548
G1 Z11.9048
 X-8.5000
 Y4.4000
 X66.8558
G0 Z25.0000
 X102.0000
G1 Z11.9048
 X108.5000
 Y7.1000
 X102.0000
G0 Z25.0000
 X69.1881
G1 Z11.9048
 X-8.5000
 Y9.8000
 X85.0234
G0 Z25.0000
 X102.0000
G1 Z11.9048
 X108.5000
 Y12.5000
 X102.0000
G0 Z25.0000
 X85.0234
G1 Z11.9048
 X-8.5000
 Y15.2000
 X85.0234
G0 Z25.0000
 X102.0000
G1 Z11.9048
 X108.5000
 Y17.9000
 X102.0000
G0 Z25.0000
 X70.3184
G1 Z11.9048
 X-8.5000
 Y20.6000
 X68.8535
G0 Z25.0000
 X102.0000
G1 Z11.9048
 X108.5000
 Y23.3000
 X102.0000
G0 Z25.0000
 X66.9120
G1 Z11.9048
 X-8.5000
 Y26.0000
 X66.2335
G0 Z25.0000
 X101.7320
G1 Z11.9048
 X108.5000
 Z8.9286
 X101.7320
G0 Z25.0000
 X63.7163
G1 Z8.9286
 X18.9737
G0 Z25.0000
 X15.5584
G1 Z8.9286
 X-8.5000
 Y23.3000
 X13.4603
G0 Z25.0000
 X21.0599
G1 Z8.9286
 X64.1292
G0 Z25.0000
 X102.0000
G1 Z8.9286
 X108.5000
 Y20.6000
 X102.0000
G0 Z25.0000
 X65.5941
G1 Z8.9286
 X21.5438
G0 Z25.0000
 X9.8936
G1 Z8.9286
 X-8.5000
 Y17.9000
 X8.3017
G0 Z25.0000
 X21.5438
G1 Z8.9286
 X66.7505
G0 Z25.0000
 X102.0000
G1 Z8.9286
 X108.5000
 Y15.2000
 X102.0000
G0 Z25.0000
 X66.7505
G1 Z8.9286
 X21.5438
G0 Z25.0000
 X8.3017
G1 Z8.9286
 X-8.5000
 Y12.5000
 X8.3017
G0 Z25.0000
 X21.5438
G1 Z8.9286
 X66.7505
G0 Z25.0000
 X102.0000
G1 Z8.9286
 X108.5000
 Y9.8000
 X102.0000
G0 Z25.0000
 X66.7505
G1 Z8.9286
 X21.5438
G0 Z25.0000
 X8.3017
G1 Z8.9286
 X-8.5000
 Y7.1000
 X8.3017
G0 Z25.0000
 X21.5438
G1 Z8.9286
 X65.9286
G0 Z25.0000
 X102.0000
G1 Z8.9286
 X108.5000
 Y4.4000
 X102.0000
G0 Z25.0000
 X63.4703
G1 Z8.9286
 X21.5438
G0 Z25.0000
 X9.0334
G1 Z8.9286
 X-8.5000
 Y1.7000
 X12.6001
G0 Z25.0000
 X20.7044
G1 Z8.9286
 X62.9989
G0 Z25.0000
 X102.0000
G1 Z8.9286
 X108.5000
 Y-1.0000
 X101.7320
G0 Z25.0000
 X63.7163
G1 Z8.9286
 X18.9736
G0 Z25.0000
 X15.5583
G1 Z8.9286
 X-8.5000
 Z5.9524
 X13.2690
G0 Z25.0000
 X23.0087
G1 Z5.9524
 X61.1991
G0 Z25.0000
 X101.7320
G1 Z5.9524
 X108.5000
 Y1.7000
 X102.0000
G0 Z25.0000
 X59.7394
G1 Z5.9524
 X25.3339
G0 Z25.0000
 X8.6743
G1 Z5.9524
 X-8.5000
 Y4.4000
 X3.4898
G0 Z25.0000
 X24.7035
G1 Z5.9524
 X61.2043
G0 Z25.0000
 X102.0000
G1 Z5.9524
 X108.5000
 Y7.1000
 X102.0000
G0 Z25.0000
 X61.7691
G1 Z5.9524
 X24.7035
G0 Z25.0000
 X-0.8006
G1 Z5.9524
 X-8.5000
 Y9.8000
 X-1.3588
G0 Z25.0000
 X24.7035
G1 Z5.9524
 X62.1281
G0 Z25.0000
 X102.0000
G1 Z5.9524
 X108.5000
 Y12.5000
 X102.0000
G0 Z25.0000
 X62.1281
G1 Z5.9524
 X24.7035
G0 Z25.0000
 X-1.3588
G1 Z5.9524
 X-8.5000
 Y15.2000
 X-1.3588
G0 Z25.0000
 X24.7035
G1 Z5.9524
 X62.1281
G0 Z25.0000
 X102.0000
G1 Z5.9524
 X108.5000
 Y17.9000
 X102.0000
G0 Z25.0000
 X62.1281
G1 Z5.9524
 X24.7035
G0 Z25.0000
 X-0.8006
G1 Z5.9524
 X-8.5000
 Y20.6000
 X4.3500
G0 Z25.0000
 X24.7036
G1 Z5.9524
 X62.3347
G0 Z25.0000
 X102.0000
G1 Z5.9524
 X108.5000
 Y23.3000
 X102.0000
G0 Z25.0000
 X60.8698
G1 Z5.9524
 X24.7036
G0 Z25.0000
 X8.8919
G1 Z5.9524
 X-8.5000
 Y26.0000
 X13.2690
G0 Z25.0000
 X23.5999
G1 Z5.9524
 X61.1991
G0 Z25.0000
 X101.7320
G1 Z5.9524
 X108.5000
 Z2.9762
 X101.7320
G0 Z25.0000
 X12.3124
G1 Z2.9762
 X-8.5000
 Y23.3000
 X8.1952
G0 Z25.0000
 X102.0000
G1 Z2.9762
 X108.5000
 Y20.6000
 X102.0000
G0 Z25.0000
 X3.5006
G1 Z2.9762
 X-8.5000
 Y17.9000
 X-1.2994
G0 Z25.0000
 X102.0000
G1 Z2.9762
 X108.5000
 Y15.2000
 X102.0000
G0 Z25.0000
 X-2.0000
G1 Z2.9762
 X-8.5000
 Y12.5000
 X-2.0000
G0 Z25.0000
 X102.0000
G1 Z2.9762
 X108.5000
 Y9.8000
 X102.0000
G0 Z25.0000
 X-2.0000
G1 Z2.9762
 X-8.5000
 Y7.1000
 X-1.2994
G0 Z25.0000
 X102.0000
G1 Z2.9762
 X108.5000
 Y4.4000
 X102.0000
G0 Z25.0000
 X3.5006
G1 Z2.9762
 X-8.5000
 Y1.7000
 X7.9365
G0 Z25.0000
 X102.0000
G1 Z2.9762
 X108.5000
 Y-1.0000
 X101.7320
G0 Z25.0000
 X12.0537
G1 Z2.9762
 X-8.5000
 Z0.0000
 X10.1958
G0 Z25.0000
 X101.7320
G1 Z0.0000
 X108.5000
 Y1.7000
 X102.0000
G0 Z25.0000
 X6.3590
G1 Z0.0000
 X-8.5000
 Y4.4000
 X2.5221
G0 Z25.0000
 X102.0000
G1 Z0.0000
 X108.5000
 Y7.1000
 X102.0000
G0 Z25.0000
 X-1.2994
G1 Z0.0000
 X-8.5000
 Y9.8000
 X-2.0000
G0 Z25.0000
 X102.0000
G1 Z0.0000
 X108.5000
 Y12.5000
 X102.0000
G0 Z25.0000
 X-2.0000
G1 Z0.0000
 X-8.5000
 Y15.2000
 X-2.0000
G0 Z25.0000
 X102.0000
G1 Z0.0000
 X108.5000
 Y17.9000
 X102.0000
G0 Z25.0000
 X-1.2994
G1 Z0.0000
 X-8.5000
 Y20.6000
 X2.5221
G0 Z25.0000
 X102.0000
G1 Z0.0000
 X108.5000
 Y23.3000
 X102.0000
G0 Z25.0000
 X6.3590
G1 Z0.0000
 X-8.5000
 Y26.0000
 X10.1958
G0 Z25.0000
 X101.7320
G1 Z0.0000
 X108.5000
G0 Z25.0000
M5 (stop spindle)
G04 P3 (wait for 3 seconds)
G0 Z25.0000
M2 (end program)
